dist/img/set-gr.svg

<svg width="24" height="25" viewBox="0 0 24 25" fill="none" xmlns="http://www.w3.org/2000/svg">
<g clip-path="url(#clip0_170_10543)">
<path d="M19.4301 13.48C19.4701 13.16 19.5001 12.84 19.5001 12.5C19.5001 12.16 19.4701 11.84 19.4301 11.52L21.5401 9.87C21.7301 9.72 21.7801 9.45 21.6601 9.23L19.6601 5.77C19.5701 5.61 19.4001 5.52 19.2201 5.52C19.1601 5.52 19.1001 5.53 19.0501 5.55L16.5601 6.55C16.0401 6.15 15.4801 5.82 14.8701 5.57L14.4901 2.92C14.4601 2.68 14.2501 2.5 14.0001 2.5H10.0001C9.75008 2.5 9.54008 2.68 9.51008 2.92L9.13008 5.57C8.52008 5.82 7.96008 6.16 7.44008 6.55L4.95008 5.55C4.89008 5.53 4.83008 5.52 4.77008 5.52C4.60008 5.52 4.43008 5.61 4.34008 5.77L2.34008 9.23C2.21008 9.45 2.27008 9.72 2.46008 9.87L4.57008 11.52C4.53008 11.84 4.50008 12.17 4.50008 12.5C4.50008 12.83 4.53008 13.16 4.57008 13.48L2.46008 15.13C2.27008 15.28 2.22008 15.55 2.34008 15.77L4.34008 19.23C4.43008 19.39 4.60008 19.48 4.78008 19.48C4.84008 19.48 4.90008 19.47 4.95008 19.45L7.44008 18.45C7.96008 18.85 8.52008 19.18 9.13008 19.43L9.51008 22.08C9.54008 22.32 9.75008 22.5 10.0001 22.5H14.0001C14.2501 22.5 14.4601 22.32 14.4901 22.08L14.8701 19.43C15.4801 19.18 16.0401 18.84 16.5601 18.45L19.0501 19.45C19.1101 19.47 19.1701 19.48 19.2301 19.48C19.4001 19.48 19.5701 19.39 19.6601 19.23L21.6601 15.77C21.7801 15.55 21.7301 15.28 21.5401 15.13L19.4301 13.48ZM17.4501 11.77C17.4901 12.08 17.5001 12.29 17.5001 12.5C17.5001 12.71 17.4801 12.93 17.4501 13.23L17.3101 14.36L18.2001 15.06L19.2801 15.9L18.5801 17.11L17.3101 16.6L16.2701 16.18L15.3701 16.86C14.9401 17.18 14.5301 17.42 14.1201 17.59L13.0601 18.02L12.9001 19.15L12.7001 20.5H11.3001L11.1101 19.15L10.9501 18.02L9.89008 17.59C9.46008 17.41 9.06008 17.18 8.66008 16.88L7.75008 16.18L6.69008 16.61L5.42008 17.12L4.72008 15.91L5.80008 15.07L6.69008 14.37L6.55008 13.24C6.52008 12.93 6.50008 12.7 6.50008 12.5C6.50008 12.3 6.52008 12.07 6.55008 11.77L6.69008 10.64L5.80008 9.94L4.72008 9.1L5.42008 7.89L6.69008 8.4L7.73008 8.82L8.63008 8.14C9.06008 7.82 9.47008 7.58 9.88008 7.41L10.9401 6.98L11.1001 5.85L11.3001 4.5H12.6901L12.8801 5.85L13.0401 6.98L14.1001 7.41C14.5301 7.59 14.9301 7.82 15.3301 8.12L16.2401 8.82L17.3001 8.39L18.5701 7.88L19.2701 9.09L18.2001 9.94L17.3101 10.64L17.4501 11.77ZM12.0001 8.5C9.79008 8.5 8.00008 10.29 8.00008 12.5C8.00008 14.71 9.79008 16.5 12.0001 16.5C14.2101 16.5 16.0001 14.71 16.0001 12.5C16.0001 10.29 14.2101 8.5 12.0001 8.5ZM12.0001 14.5C10.9001 14.5 10.0001 13.6 10.0001 12.5C10.0001 11.4 10.9001 10.5 12.0001 10.5C13.1001 10.5 14.0001 11.4 14.0001 12.5C14.0001 13.6 13.1001 14.5 12.0001 14.5Z" fill="#828A92"/>
</g>
<defs>
<clipPath id="clip0_170_10543">
<rect width="24" height="24" fill="white" transform="translate(0 0.5)"/>
</clipPath>
</defs>
</svg>

<svg width="24" height="25" fill="none" xmlns="http://www.w3.org/2000/svg"><g clip-path="url(#clip0_170_10543)"><path d="M19.43 13.48c.04-.32.07-.64.07-.98 0-.34-.03-.66-.07-.98l2.11-1.65c.19-.15.24-.42.12-.64l-2-3.46a.5.5 0 00-.61-.22l-2.49 1c-.52-.4-1.08-.73-1.69-.98l-.38-2.65A.488.488 0 0014 2.5h-4c-.25 0-.46.18-.49.42l-.38 2.65c-.61.25-1.17.59-1.69.98l-2.49-1a.566.566 0 00-.18-.03c-.17 0-.34.09-.43.25l-2 3.46c-.13.22-.07.49.12.64l2.11 1.65c-.04.32-.07.65-.07.98 0 .33.03.66.07.98l-2.11 1.65c-.19.15-.24.42-.12.64l2 3.46a.5.5 0 00.61.22l2.49-1c.52.4 1.08.73 1.69.98l.38 2.65c.03.24.24.42.49.42h4c.25 0 .46-.18.49-.42l.38-2.65c.61-.25 1.17-.59 1.69-.98l2.49 1c.06.02.12.03.18.03.17 0 .34-.09.43-.25l2-3.46c.12-.22.07-.49-.12-.64l-2.11-1.65zm-1.98-1.71c.04.31.05.52.05.73 0 .21-.02.43-.05.73l-.14 1.13.89.7 1.08.84-.7 1.21-1.27-.51-1.04-.42-.9.68c-.43.32-.84.56-1.25.73l-1.06.43-.16 1.13-.2 1.35h-1.4l-.19-1.35-.16-1.13-1.06-.43c-.43-.18-.83-.41-1.23-.71l-.91-.7-1.06.43-1.27.51-.7-1.21 1.08-.84.89-.7-.14-1.13c-.03-.31-.05-.54-.05-.74 0-.2.02-.43.05-.73l.14-1.13-.89-.7-1.08-.84.7-1.21 1.27.51 1.04.42.9-.68c.43-.32.84-.56 1.25-.73l1.06-.43.16-1.13.2-1.35h1.39l.19 1.35.16 1.13 1.06.43c.43.18.83.41 1.23.71l.91.7 1.06-.43 1.27-.51.7 1.21-1.07.85-.89.7.14 1.13zM12 8.5c-2.21 0-4 1.79-4 4s1.79 4 4 4 4-1.79 4-4-1.79-4-4-4zm0 6c-1.1 0-2-.9-2-2s.9-2 2-2 2 .9 2 2-.9 2-2 2z" fill="#828A92"/></g><defs><clipPath id="clip0_170_10543"><path fill="#fff" transform="translate(0 .5)" d="M0 0h24v24H0z"/></clipPath></defs></svg>
